X:1
T:Faith of Our Fathers
T:Text: Frederick W. Faber (1814-1863), alt. Tune: Henry F. Hemy (1818-1888); arr. James G. Walton (1821-1905)
T:88 88 88 ST. CATHERINE www.hymnary.org/text/faith_of_our_fathers_living_still
T:Faith of Our Fathers
T:This hymn is in the public domain.  You may freely use this score for personal and congregational worship.  If you reproduce the score, please credit Hymnary.org as the source. 
T:This hymn is in the public domain.  You may freely use this score for personal and congregational worship.  If you reproduce the score, please credit Hymnary.org as the source. 
Z:This hymn is in the public domain.  You may freely use this score for personal and congregational worship.  If you reproduce the score, please credit Hymnary.org as the source.
%%score ( 1 2 ) ( 3 4 )
L:1/8
M:3/4
K:G
V:1 treble nm="Piano" snm="Pno."
V:2 treble 
V:3 bass nm="Piano" snm="Pno."
V:4 bass 
V:1
 [DB]2 [DA]2 [DG]2 | (G2 F2) [DG]2 | (A2 E2) [DF]2 | [DG]6 | [EG]2 [DF]2 [CE]2 | [B,D]4 [DG]2 | %6
w: 3~Faith of the|mar- * tyrs|who, _ though|bound,|were still in|heart and|
w: 1~Faith of our|fa- * thers,|li- * ving|still|in spite of|dun- geon,|
w: 2~Faith of our|mo- * thers,|we _ will|love|both friend and|foe in|
 (G2 F2) [^CG]2 | [DA]6 | [DB]2 [DA]2 [DG]2 | (G2 F2) [DG]2 | (A2 E2) [CF]2 | [B,G]6 | %12
w: cons- * cience|ture.|How blest would|be _ their|chil- * dren's|fate,|
w: fire, _ and|sword.|O how our|hearts _ beat|high _ with|joy|
w: all _ our|strife,|and preach it,|too, _ as|love _ knows|how,|
 [EG]2 [DF]2 [CE]2 | [B,D]4 [DB]2 | (A2 B2) [=CA]2 | [B,G]6 | [Gc]2 [Gc]2 [Gc]2 | [GB]4 [GB]2 | %18
w: if they, like|them, should|live _ for|you!|Faith of the|mar- tyrs,|
w: when- e'er we|hear that|glo- * rious|Word!|Faith of our|fa- thers,|
w: by kind- ly|words and|vir- * tuous|life!|Faith of our|mo- thers,|
 [FA]4 [FA]2 | [GB]6 | [B,B]2 [CA]2 [DG]2 | [CE]4 [B,G]2 | [DA]4 [CA]2 | [B,G]6 |] %24
w: ||||||
w: ho- ly|faith,|we will be|true to|thee till|death.|
w: ||||||
V:2
 x6 | D4 x2 | E4 x2 | x6 | x6 | x6 | ^C4 x2 | x6 | x6 | D4 x2 | E4 x2 | x6 | x6 | x6 | ^C4 x2 | %15
 x6 | x6 | x6 | x6 | x6 | x6 | x6 | x6 | x6 |] %24
V:3
 [G,D]2 [G,C]2 [G,B,]2 | (([G,B,]2 [A,C]2)) [G,B,]2 | [C,C]4 [D,A,]2 | [G,,B,]6 | %4
 [C,G,]2 [C,G,]2 [E,G,]2 | G,4 [G,,B,]2 | [A,,A,]4 [A,,G,]2 | [D,F,]6 | G,2 [G,C]2 [G,B,]2 | %9
 (([G,B,]2 [A,C]2)) [G,B,]2 | [C,C]4 [D,A,]2 | [E,G,]6 | [C,G,]2 [C,G,]2 [E,G,]2 | G,4 [G,,G,]2 | %14
 [A,,G,]4 [D,F,]2 | [G,,G,]6 | [C,E]2 [C,E]2 [C,E]2 | [G,D]4 [G,D]2 | [D,D]4 [D,D]2 | [G,D]6 | %20
 [G,,G,]2 [A,,F,]2 [B,,G,]2 | [C,G,]4 [E,G,]2 | [D,G,]4 [D,F,]2 | [G,,G,]6 |] %24
V:4
 x6 | x6 | x6 | x6 | x6 | G,4 x2 | x6 | x6 | G,2 x4 | x6 | x6 | x6 | x6 | G,4 x2 | x6 | x6 | x6 | %17
 x6 | x6 | x6 | x6 | x6 | x6 | x6 |] %24

